X:174
T:Mike Flynn's
D:Mike & Mary Rafferty, The Old Fireside Music (1998)
Z:Nigel Gatherer
M:4/4
L:1/8
K:C dorian (two flats)
c>ccd BGFG|B2 df gfdf|gc' c'2 bgfd|c z dB cBGF|c>ccd BGFG|B2 df gfdf|
gc' c'2 bgfd|cedB c2 z2::c'>c'c'd' c'bga|bgfd B2 (3def|gbac' bgfd|
c z dB cBgf|c'>c'c'd' c'bga|bgfd B2 (3def|gbac' bgfg|b2 c'a bgfd:|
<end>
<start>
